X:1
T:Where the Fight is Hardest
T:Where the Fight is Hardest
T:Carl Harold Lowden
T:William Charles Poole, 1913
T:Public Domain Courtesy of the Cyber Hymnal™
T:Public Domain Courtesy of the Cyber Hymnal™
C:Carl Harold Lowden
Z:Public Domain
Z:Courtesy of the Cyber Hymnal™
%%score ( 1 2 ) ( 3 4 )
L:1/8
Q:1/4=103
M:4/4
K:G
V:1 treble 
V:2 treble 
V:3 bass 
V:4 bass 
V:1
 D>D | [B,G]2 [B,G]2 [B,G]>D B,>D | [B,G]2 A2 [DB]2 D>D | [DA]2 [DA]2 [DA]>D [DF]>[DG] | %4
w: 1.~Where the|fight is hard- est and the|he- roes fall, Where the|night is dark- est and the|
w: 2.~Where the|need is great- est, I would|brave- ly stand, Fear- less,|brave, and loy- al, with a|
w: 3.~Where Thy|hand would lead me o- ver|all the world, I would|glad- ly fol- low till there|
 [DA]2 [DB]2 [Dc]2 [DA]>[DA] | [DB]2 [DB]2 [DB]>[DA] [DG]>[DA] | [DB]2 [Dc]2 [Gd]2 [Ec]>[Ec] | %7
w: lost ones call, Mas- ter,|I would fol- low, fol- low|on- ly Thee— Here am|
w: help- ing hand, Here am|I for ser- vice what- so-|e’er it be— Here am|
w: is un- furled Thy blest|ban- ner wav- ing o- ver|hearts set free— Here am|
 [DB]6 [FA]2 | G6 ||"^Refrain" [GB]>[Ac] | d6 [Ge]2 | d6 [GB]>[Ac] | d6 [GB]2 | A6 [Fd]>[Fc] | %14
w: I; send|me!||||||
w: I; send|me!|Here am|I; send|me! Here am|I; send|me! If it|
w: I; send|me!||||||
 [GB]2 [GB]2 [GB]2 [GA]>[GB] | [Gc]2 [=Fd]>[Fd] !fermata![Ee]2 c>A | (z2 [DF]2) x6 | [DG]6 |] %18
w: ||||
w: on- ly be on an|er- rand for Thee— Here am||I;|
w: ||||
V:2
 D>D | x11/2 D/ B,>D | x2 [DA]2 D>D x2 | x11/2 D/ x2 | x8 | x8 | x8 | x8 | G6 || x2 | %10
 (B2 G>G G2) x2 | (G2 G2 G2) x2 | (B2 G>G G2) x2 | (F2 F2 F2) x2 | x8 | x8 | (d6 G>G F2) | x6 |] %18
V:3
 D,>D, | [G,,D,]2 [G,,D,]2 [G,,D,]>D, B,,>D, | [G,,G,]2 [D,F,]2 G,2 D,>D, | %3
w: ~ ~|~ ~ ~ ~ ~ ~|~ ~ ~ ~ ~|
 [D,F,]2 [D,F,]2 [D,F,]>[D,F,] [D,A,]>[D,E,] | [D,F,]2 [D,G,]2 [D,A,]2 [D,F,]>[D,F,] | %5
w: ~ ~ ~ ~ ~ ~|~ ~ ~ ~ ~|
 G,2 G,2 G,>[D,F,] [B,,G,]>[D,F,] | G,2 [G,A,]2 [G,B,]2 [C,G,]>[C,G,] | G,6 [D,C]2 | [G,B,]6 || %9
w: ~ ~ ~ ~ ~ ~|~ ~ ~ ~ ~|~ ~|Here|
 z2 | z2 [G,B,]>[G,B,] [G,B,]2 [C,C]2 | [G,B,]2 [G,B,]2 [G,B,]2 z2 | %12
w: |am I; send me!|Here am I;|
 z2 [G,B,]>[G,B,] [G,B,]2 [G,D]2 | [D,D]2 [D,D]2 [D,D]2 [D,A,]>[D,D] | %14
w: send me! ~ ~|~ ~ ~ ~ ~|
 [G,D]2 [G,D]2 [G,D]2 [=F,D]>[F,D] | [E,C]2 [D,B,]>[D,B,] !fermata![C,C]2 z2 | %16
w: ~ ~ ~ ~ ~|~ ~ ~ ~|
 z2 [D,B,]>[D,B,] [D,B,]2 [D,C]2 x2 | [G,,G,B,]6 |] %18
w: ~ ~ ~ ~|Here|
V:4
 D,>D, | x11/2 D,/ B,,>D, | x4 G,2 D,>D, | x8 | x8 | G,2 G,2 G,3/2 x5/2 | G,2 x6 | %7
 D,2 (3D,G,B, D2 x2 | x6 || x2 | x8 | x8 | x8 | x8 | x8 | x8 | x10 | x6 |] %18

